X:1
T:C Major                    Jacob French, 1789
T:Nahum Tate & Nicholas Brady, 1698 New Version (Psalm 95)         88. 88. (L. M.)
T:Persepolis
T:Transcribed from  The New American Melody, 1789.
%%score [ 1 2 3 4 ]
L:1/8
Q:1/4=130
M:2/2
K:C
V:1 treble nm="Tr." snm="Tr."
V:2 treble nm="C." snm="C."
V:3 treble-8 nm="T." snm="T."
V:4 bass nm="B." snm="B."
V:1
 E4 | G2 G2 G4 | A4 G2 G2 | G4 A4 | A2 A2 A4 | B4 A2 A2 | A4 B4 | B2 B2 B4 | c4 c2 c2 | B4 c4 | %10
 c2 c2 c4 | d4 c2 c2 | c4 c4 | %13
"^1. praise, we praise. ______                                                                                              his   favors  past;  Down  on    our     knees   de – vout  –  ly          all       Be –\n2. Ma–ker   fall.  _________                                                                                             his sheep are we;  To       him   ad  –  dress,   in     joy  –   ful      songs,    The" B4 d4 | %14
 (cGcd e2) z2 | z8 | z8 | z4 z2 c2 | B2 B2 B2 G2 | A4 ^F4 | G6 G2 | (F2 G2) (A2 B2) | c6 c2 | %23
 (c3 d c2) dc | (B3 c B2) cB | A4 G4 | G8 |] %27
V:2
"^1. O  come,  loud anthems  let us sing,  Loud  thanks  to  our  Almighty  King;   For  we  our  voices  high  should  raise  When our salvation's rock we praise, we\n2. O    let  us   to     his  courts  repair,  And  bow  with  a–do–ra–tion   there;  Down  on  our  knees  de–vout–ly  all   Be –fore  the Lord  our  Maker  fall,  our" C4 | %1
 E2 E2 E4 | F4 D2 D2 | E4 F4 | F2 F2 F4 | G4 E2 E2 | F4 G4 | G2 G2 G4 | A4 ^F2 F2 | G4 A4 | %10
 A2 A2 A4 | B4 G2 G2 | A4 G4 | %13
"^1. praise, we praise. ______                                           let us haste,  To  thank him for  his   favors past; Down on       our   knees   de  – vout  –  ly           all      Be –\n2. Ma–ker   fall.   ________                                           shepherd he, His flock and pasture sheep are we; To     him      ad – dress,   in     joy   –   ful       songs,   The" [DG]4 G4 | %14
 (GFEF G2) z2 | z8 | A2 A2 A2 G2 | G2 G2 G2 G2 | G2 G2 G2 D2 | E4 D4 | D6 C2 | C4 D4 | E6 C2 | %23
"^1. – fore        the          Lord             our         Ma        –       ker    fall.\n2.  praise       that           to                his         name _____   be – longs." F6 GA | %24
 G6 DE | (D2 EC D2) B,2 | C8 |] %27
V:3
 G4 | c2 c2 c4 | c4 B2 B2 | c4 c4 | d2 d2 d4 | d4 ^c2 c2 | d4 d4 | e2 e2 e4 | e4 ^d2 d2 | e4 e4 | %10
 f2 f2 f4 | f4 e2 e2 | f4 e4 | %13
"^1.praise, we praise. _______   In    –   to  his  presence let us haste, To  thank him for  his  favors past;  Down  on       our   knees   de – vout  –  ly            all     Be –\n2. Ma–ker   fall.  _________   For   he's our God, our shepherd he,  His flock and pasture sheep are we;  To     him      ad – dress,   in     joy  –  ful         songs,   The" d4 B4 | %14
 c6 ef | g2 g2 g2 e2 | f2 f2 f2 d2 | e2 e2 e2 c2 | d2 d2 d2 B2 | (c2 B2) A4 | G6 E2 | (A2 G2) F4 | %22
 E6 G2 | A6 G^F | G6 FE | (F2 E2) D4 | C8 |] %27
V:4
 C,4 | C,2 C,2 C,4 | F,4 G,2 G,,2 | C,4 F,4 | D,2 D,2 D,4 | G,4 A,2 A,,2 | D,4 G,4 | E,2 E,2 E,4 | %8
 A,4 B,2 B,,2 | E,4 A,4 | F,2 F,2 F,4 | B,4 C2 C,2 | F,4 C4 | %13
"^1. praise, we praise. _______                                                              To  thank  him  for his  favors  past;  Down  on    our      knees   de – vout – ly            all      Be –\n2. Ma–ker   fall.  ___________                                                           His flock and pasture sheep are we;   To    him     ad –   dress,    in     joy  –  ful        songs,  The" G,4 G,,4 | %14
 C,6 z2 | z8 | z4 z2 G,2 | C2 C2 C2 C,2 | G,2 G,2 G,2 G,,2 | C,4 D,4 | G,,6 C,2 | (F,2 E,2) D,4 | %22
 C,6 E,2 | F,6 E,D, | E,6 D,C, | %25
 (D,2 C,2)"^____________________________________________\nEdited by B. C. Johnston, 2018.\nMeasure 9, Counter: first two notes changed from F to F#, as suggested by Jones (1998)." G,,4 | %26
 C,8 |] %27

